X:1
T:Cara stelletta
T:Cara stelletta
T:Marc'Antonio Tornioli
T:Source : Canzonette spirituali a tre voci---Libro Primo---Venetia---Ang.Gardano---1607. Editor : André Vierendeels (18/06/16).
T:Notes : Original clefs C1, C1, F4 Editorial accidentals above tha staff m 9 in B : "F sharp" notated as quarter in original print
T:©
T:©
T:©
T:©
C:Marc'Antonio Tornioli
Z:©
%%score [ 1 2 3 ]
L:1/8
Q:1/4=90
M:4/4
K:F
V:1 treble nm="Soprano 1" snm="S 1"
V:2 treble nm="Soprano 2" snm="S 2"
V:3 bass nm="Bass" snm="B"
V:1
 D2 DD C2 F2 | E4 D4 | z2 D2 CDEF | GA B4 A2 | c4 B4 | z8 | z2 F2 c4- | cBBA c4 | d4 z2 G2 | %9
w: Ca- ra stel- let- ta|mi- ra,|co- me'a- mo- ro- so|ti ri- mi- ra'il|Cie- lo,||senz' om-|* bra'e sen- za ve-|lo, senz'|
 d4- dccB | cA c4 =B2 | c8 :: c6 B2 | A4 z4 | z2 dc B2 d2 | B2 d2 _e4 | d8 | z2 D2 G2 F2 | %18
w: om- * bra'e sen- za,|sen- za ve- *|lo.|Co- me'a|te|tut- to s'or- n'a|te so- spi-|ra,|ed a te|
 G4 A2 BA | G2 F2 _E4 | D4 z4 | z2 B2 G2 A2 | BBAG A2 c2 | Bc d2 c4 | z4 z2 c2 | A2 B2 ccBA | %26
w: vol- ge tut- t'i|lu- mi suo-|i,|per far si|bel- lo ne' begl' oc- chi|tuo- * * i|per|far si bel- lo ne' begl'|
 B3 A A4 | G8 :| %28
w: oc- chi tuo-|i.|
V:2
 z8 | z8 | z8 | D2 DD C2 F2 | E4 D4 | C4 B,CDE | FG A4 G2 | F6 E2 | z2 D2 B4- | BAAG A2 D2 | %10
w: |||Ca- ra stel- let- ta|mi- ra,|co- me'a- mo- ro- so|ti ri- mi- ra'il|Cie- lo,|senz' om-|* bra'e sen- za ve- *|
 A2 G3 F/E/ D2 | E8 :: A4 G4 | F2 cB A4 | ^F4 GA B2 | z G B3 A/G/ A2 | B2 D2 G2 F2 | B4 c2 dc | %18
w: |lo.|Co- me'a|te tut- to s'or-|n'a te _ _|so- spi- * * *|ra, ed a te|vol- ge tut- t'i|
 B2 c2 c2 GA | B6 A2 | B2 A2 F2 G2 | AAGF c3 c | F4 E4 | z2 B2 G2 A2 | BBAG A4 | F2 DD G4- | %26
w: lu- mi suo- * *||i, per far si|bel- lo ne' begl' oc- chi|tuo- i,|per far si|bel- lo ne' begl' oc-|chi, ne' begl' oc-|
 G2 G2 ^F4 | G8 :| %28
w: * chi tuo-|i.|
V:3
 z8 | z4 G,2 G,G, | F,2 B,2 A,4 | G,4 z2 D,2 | C,D,E,F, G,A, B,2- | B,2 A,2 G,4 | F,4 E,4 | %7
w: |Ca- ra stel-|let- ta mi-|ra, co-|me'a- mo- ro- so- ti- ri- mi-|* ra'il Cie-|* lo,|
 D,4 A,4- | A,G,G,^F, G,4 | D,4 z2 G,2 | F,2 E,2 G,4 | C,8 :: F,4 E,4 | F,4 z2 F,E, | %14
w: senz' om-|* bra'e sen- za ve-|lo, e|sen- za ve-|lo.|Co- me'a|te tut- to|
 D,2 D,2 G,4- | G,2 z D, C,4 | B,,8 | z2 B,,2 _E,2 D,2 | _E,4 F,2 G,F, | _E,2 D,2 C,4 | %20
w: s'or- na te|_ so- spi-|ra,|ed a te|vol- ge tut- t'i|lu- mi suo-|
"^b" G,2 F,2 D,2 E,2 | F,F,_E,D, E,2 F,2 | D,4 A,,4 | G,4 E,2 F,2 | G,G,F,E, F,4- | F,2 G,2 _E,4 | %26
w: i, per far si|bel- lo ne' begl' oc- chi|tuo- i,|per far si|bel- lo ne' begl' oc-|* chi tuo-|
 D,8 | G,,8 :| %28
w: |i.|

